app/icons/chatgpt.svg

<svg xmlns="http://www.w3.org/2000/svg" xmlns:xlink="http://www.w3.org/1999/xlink" width="43"
  height="44" viewBox="0 0 43 44" fill="none">
  <defs>
    <rect id="path_0" x="0" y="0" width="43" height="43.580135196270106" />
  </defs>
  <g opacity="1" transform="translate(0 0.000001981943071882597)  rotate(0 21.5 21.790067598135053)">
    <mask id="bg-mask-0" fill="white">
      <use xlink:href="#path_0"></use>
    </mask>
    <g mask="url(#bg-mask-0)">
      <path id="分组 1" fill-rule="evenodd" style="fill:#8BCAE0"
        transform="translate(0 0)  rotate(0 21.5 21.790067598135053)" opacity="0.27"
        d="M40.17 17.84L40.17 17.84C40.53 16.73 40.72 15.57 40.72 14.41C40.72 12.48 40.21 10.58 39.23 8.92C37.27 5.51 33.64 3.41 29.71 3.41C28.94 3.41 28.16 3.49 27.41 3.65C25.35 1.33 22.39 0 19.29 0L19.22 0L19.19 0C14.43 0 10.21 3.07 8.74 7.6C5.68 8.23 3.03 10.15 1.48 12.87C0.51 14.54 0 16.45 0 18.38C0 21.1 1.01 23.73 2.83 25.74C2.47 26.85 2.28 28.01 2.28 29.17C2.28 31.1 2.79 33 3.77 34.66C6.14 38.8 10.92 40.93 15.59 39.93C17.65 42.25 20.61 43.58 23.71 43.58L23.78 43.58L23.81 43.58C28.57 43.58 32.8 40.51 34.26 35.97C37.33 35.35 39.97 33.43 41.52 30.71C42.49 29.03 43 27.13 43 25.2C43 22.48 41.99 19.86 40.17 17.84Z M18.817 38.6948C18.727 38.7448 18.647 38.7948 18.557 38.8448C20.017 40.0648 21.867 40.7348 23.777 40.7348L23.787 40.7348C28.287 40.7248 31.937 37.0648 31.947 32.5648L31.947 22.4348C31.937 22.3848 31.907 22.3548 31.877 22.3348L28.207 20.2148L28.207 32.4548C28.207 32.9648 27.937 33.4348 27.487 33.6848L18.817 38.6948Z M17.3932 36.223L26.1632 31.163C26.2032 31.133 26.2232 31.093 26.2232 31.053L26.2132 31.053L26.2132 26.813L15.6232 32.933C15.1832 33.183 14.6432 33.183 14.2032 32.933L5.52317 27.923C5.44317 27.873 5.32317 27.803 5.26317 27.763C5.18317 28.223 5.14317 28.693 5.14317 29.163C5.14317 30.593 5.52317 31.993 6.23317 33.233L6.23317 33.233C7.70317 35.763 10.3932 37.313 13.3132 37.313C14.7432 37.313 16.1532 36.943 17.3932 36.223Z M8.20584 11.013C8.20584 10.923 8.20584 10.783 8.20584 10.713C6.41583 11.373 4.90584 12.643 3.95583 14.293L3.95583 14.293C3.24583 15.533 2.86583 16.943 2.86583 18.373C2.86583 21.293 4.41583 23.983 6.94584 25.443L15.7158 30.513C15.7558 30.533 15.8058 30.533 15.8358 30.503L19.5058 28.383L8.91584 22.273C8.47583 22.023 8.20584 21.553 8.20584 21.043L8.20584 21.033L8.20584 11.013Z M36.0546 18.1303L27.2846 13.0603C27.2446 13.0403 27.1946 13.0503 27.1646 13.0703L23.4946 15.1903L34.0846 21.3103C34.5246 21.5603 34.7946 22.0203 34.7946 22.5303C34.7946 22.5303 34.7946 22.5403 34.7946 22.5403L34.7946 32.8603C38.0046 31.6803 40.1446 28.6203 40.1446 25.2003C40.1446 22.2803 38.5846 19.5903 36.0546 18.1303Z M16.8345 12.4124C16.8045 12.4424 16.7845 12.4824 16.7845 12.5224L16.7845 12.5224L16.7845 16.7624L27.3745 10.6424C27.5945 10.5224 27.8445 10.4524 28.0945 10.4524C28.3445 10.4524 28.5845 10.5224 28.8045 10.6424L37.4845 15.6624C37.5645 15.7124 37.6545 15.7624 37.7345 15.8124L37.7345 15.8124C37.8145 15.3524 37.8545 14.8924 37.8545 14.4324C37.8545 9.92236 34.1945 6.26236 29.6845 6.26236C28.2545 6.26236 26.8545 6.64236 25.6045 7.35236L16.8345 12.4124Z M19.2209 2.84925C14.7109 2.84925 11.0509 6.49925 11.0509 11.0093L11.0509 21.1393C11.0609 21.1893 11.0809 21.2193 11.1209 21.2393L14.7909 23.3593L14.8009 11.1293L14.8009 11.1193C14.8009 10.6193 15.0709 10.1493 15.5109 9.89925L24.1909 4.88925C24.2609 4.83925 24.3809 4.77925 24.4409 4.73925C22.9809 3.51925 21.1309 2.84925 19.2209 2.84925Z M16.783 24.5101L21.503 27.2401L26.223 24.5101L26.223 19.0601L21.503 16.3401L16.783 19.0701L16.783 24.5101Z " />
    </g>
  </g>
</svg>

<?xml version="1.0" encoding="utf-8"?>
<!-- Generator: Adobe Illustrator 24.1.3, SVG Export Plug-In . SVG Version: 6.00 Build 0)  -->
<svg version="1.1" id="Layer_1" xmlns="http://www.w3.org/2000/svg" xmlns:xlink="http://www.w3.org/1999/xlink" x="0px" y="0px"
	 viewBox="0 0 43 44" style="enable-background:new 0 0 43 44;" xml:space="preserve">
<style type="text/css">
	.st0{filter:url(#Adobe_OpacityMaskFilter);}
	.st1{fill:#FFFFFF;}
	.st2{mask:url(#bg-mask-0_1_);}
	.st3{opacity:0.27;fill-rule:evenodd;clip-rule:evenodd;fill:#8BCAE0;enable-background:new    ;}
</style>
<g transform="translate(0 0.000001981943071882597)  rotate(0 21.5 21.790067598135053)">
	<defs>
		<filter id="Adobe_OpacityMaskFilter" filterUnits="userSpaceOnUse" x="0" y="0" width="43" height="43.6">
			<feColorMatrix  type="matrix" values="1 0 0 0 0  0 1 0 0 0  0 0 1 0 0  0 0 0 1 0"/>
		</filter>
	</defs>
	<mask maskUnits="userSpaceOnUse" x="0" y="0" width="43" height="43.6" id="bg-mask-0_1_">
		<g class="st0">
			<rect id="path_0_1_" y="0" class="st1" width="43" height="43.6"/>
		</g>
	</mask>
	<g class="st2">
		<path id="分组_1" class="st3" d="M40.2,17.8L40.2,17.8c0.4-1.1,0.6-2.3,0.6-3.4c0-1.9-0.5-3.8-1.5-5.5c-2-3.4-5.6-5.5-9.5-5.5
			c-0.8,0-1.5,0.1-2.3,0.2c-2.1-2.3-5-3.7-8.1-3.7h-0.1h0c-4.8,0-9,3.1-10.5,7.6C5.7,8.2,3,10.1,1.5,12.9c-1,1.7-1.5,3.6-1.5,5.5
			c0,2.7,1,5.4,2.8,7.4c-0.4,1.1-0.5,2.3-0.5,3.4c0,1.9,0.5,3.8,1.5,5.5c2.4,4.1,7.2,6.3,11.8,5.3c2.1,2.3,5,3.7,8.1,3.7h0.1h0
			c4.8,0,9-3.1,10.4-7.6c3.1-0.6,5.7-2.5,7.3-5.3c1-1.7,1.5-3.6,1.5-5.5C43,22.5,42,19.9,40.2,17.8z M18.8,38.7
			c-0.1,0-0.2,0.1-0.3,0.1c1.5,1.2,3.3,1.9,5.2,1.9h0c4.5,0,8.1-3.7,8.2-8.2V22.4c0,0,0-0.1-0.1-0.1l-3.7-2.1v12.2
			c0,0.5-0.3,1-0.7,1.2L18.8,38.7z M17.4,36.2l8.8-5.1c0,0,0.1-0.1,0.1-0.1h0v-4.2l-10.6,6.1c-0.4,0.3-1,0.3-1.4,0l-8.7-5
			c-0.1-0.1-0.2-0.1-0.3-0.2c-0.1,0.5-0.1,0.9-0.1,1.4c0,1.4,0.4,2.8,1.1,4.1l0,0c1.5,2.5,4.2,4.1,7.1,4.1
			C14.7,37.3,16.2,36.9,17.4,36.2z M8.2,11c0-0.1,0-0.2,0-0.3c-1.8,0.7-3.3,1.9-4.3,3.6l0,0c-0.7,1.2-1.1,2.7-1.1,4.1
			c0,2.9,1.6,5.6,4.1,7.1l8.8,5.1c0,0,0.1,0,0.1,0l3.7-2.1L8.9,22.3C8.5,22,8.2,21.6,8.2,21v0V11z M36.1,18.1l-8.8-5.1
			c0,0-0.1,0-0.1,0l-3.7,2.1l10.6,6.1c0.4,0.3,0.7,0.7,0.7,1.2v0v10.3c3.2-1.2,5.3-4.2,5.3-7.7C40.1,22.3,38.6,19.6,36.1,18.1z
			 M16.8,12.4c0,0,0,0.1,0,0.1l0,0v4.2l10.6-6.1c0.2-0.1,0.5-0.2,0.7-0.2s0.5,0.1,0.7,0.2l8.7,5c0.1,0.1,0.2,0.1,0.3,0.1l0,0
			c0.1-0.5,0.1-0.9,0.1-1.4c0-4.5-3.7-8.2-8.2-8.2c-1.4,0-2.8,0.4-4.1,1.1L16.8,12.4z M19.2,2.8c-4.5,0-8.2,3.6-8.2,8.2v10.1
			c0,0.1,0,0.1,0.1,0.1l3.7,2.1l0-12.2v0c0-0.5,0.3-1,0.7-1.2l8.7-5c0.1,0,0.2-0.1,0.3-0.1C23,3.5,21.1,2.8,19.2,2.8z M16.8,24.5
			l4.7,2.7l4.7-2.7v-5.4l-4.7-2.7l-4.7,2.7V24.5z"/>
	</g>
</g>
<image style="overflow:visible;" width="192" height="192" xlink:href="../../public/android-chrome-192x192.png"  transform="matrix(0.2276 0 0 0.2276 -0.3508 0.2983)">
</image>
</svg>
